src/components/Icon/assets/goal.svg

<svg width="24" height="24" viewBox="0 0 24 24" fill="none" xmlns="http://www.w3.org/2000/svg">
<path fill-rule="evenodd" clip-rule="evenodd" d="M12.0002 20.0001V22.0001C17.5142 22.0001 22.0002 17.5141 22.0002 12.0001C22.0002 6.48611 17.5142 2.00011 12.0002 2.00011C6.4862 2.00011 2.0002 6.48611 2.0002 12.0001H4.0002C4.0002 7.58911 7.5892 4.00011 12.0002 4.00011C16.4112 4.00011 20.0002 7.58911 20.0002 12.0001C20.0002 16.4111 16.4112 20.0001 12.0002 20.0001ZM10.578 10.7234C10.991 10.2684 11.56 9.9544 12.172 10.0064C13.143 10.0894 13.915 10.8644 13.993 11.8374C14.043 12.4474 13.728 13.0144 13.274 13.4244C12.559 14.0704 11.999 14.0604 11.489 13.9254L8 17.4144V18.7974C8 18.9274 7.949 19.0524 7.859 19.1454L4.951 22.1454C4.826 22.2744 4.608 22.1864 4.608 22.0064L4.607 19.3924H1.994C1.814 19.3924 1.725 19.1734 1.855 19.0484L4.855 16.1414C4.948 16.0504 5.072 16.0004 5.203 16.0004H6.586L10.074 12.5114C9.938 12.0004 9.928 11.4384 10.578 10.7234Z" fill="#65676A"/>
</svg>

<svg xmlns="http://www.w3.org/2000/svg" width="24" height="24" viewBox="0 0 24 24">
    <path fill="#65676A" fill-rule="evenodd" d="M12.006 10.001l.166.005c.971.083 1.743.858 1.821 1.831.05.61-.265 1.177-.719 1.587-.715.646-1.275.636-1.785.501L8 17.415v1.382c0 .13-.051.255-.141.348l-2.908 3c-.125.13-.343.041-.343-.139l-.001-2.614H1.994c-.18 0-.269-.219-.139-.344l3-2.907c.093-.09.217-.14.348-.14h1.383l3.488-3.49c-.136-.51-.146-1.073.504-1.788.413-.455.982-.769 1.594-.717zm-.006-8c5.514 0 10 4.485 10 10 0 5.513-4.486 10-10 10v-2c4.411 0 8-3.59 8-8 0-4.412-3.589-8-8-8-4.41 0-8 3.588-8 8H2C2 6.485 6.486 2 12 2z"/>
</svg>
